X:1
T:Basciami vita mia
T:Basciami vita mia
T:Noë Faignient
T:Source: Harmonia celeste---Anversa---P.Phalesio & G.Bellero---1583. Editor André Vierendeels (22/11/13).
C:Noë Faignient
%%score [ 1 [ 2 3 ] 4 ]
L:1/8
Q:1/4=120
M:4/4
K:C
V:1 treble nm="Canto" snm="C"
V:2 treble-8 nm="Tenor 1" snm="T 1"
V:3 treble-8 nm="Tenor 2" snm="T 2"
V:4 bass nm="Basso" snm="B"
V:1
 E6 E2 | E2 E4 E2 | E4 A4- | A4 A4 | ^G2 B4 c2- | c2 A2 B4 | G4 z2 A2 | A2 ^F2 G4 | E8- | %9
w: Bas- cia|mi, bas- cia|mi, vi-|* ta|mia,- bas- cia|_ m'an- cho-|ra, bas-|cia m'an- cho-|ra,|
 E4 z2 A2- | A2 A2 B4 | c2 d4 ^c2- | c2 d2 B2 =c2 | A2 c2 B4 | c2 G2 A2 A2 | G4 G4 | G8 | z8 | %18
w: _ ne|_ ti spiac-|cia bas- ciar,|_ bas- ciar m'un|al- tra vol-|ta, ch"el fi- nir|di bas-|ciar,||
 A4 G2 G2 | F4 E2 E2- | E2 E3 E D2 | D2 G2 A4- | A4 ^G4 | z2 A4 B2- | B2 c2 d4 | G4 A4- | %26
w: co- si m'ac-|co- ra, co-|* si m'ac- co-|ra, m'ac- co-|* ra,|che zen-|* za bas-|ci m'e|
 A2 ^G4 A2 | A4 F4- | F4 E4 | z2 E3 F G2- | G2 B3 c d2 | A3 B c2 c2 | B2 G2 B4 | A2 AB c4 | %34
w: _ l'a- ni-|ma vol-|* ta,|bas- cia mi,|_ bas- cia mi,|mil- le vol- t'e|mil- l'an- cho-|ra, bas- cia- mi|
 E3 F G4- | G4 A3 B | c2 c2 B2 G2 | B4 A2 AA | G2 F2 E2 E2 | D4 E4 | z4 E4 | E4 z2 E2- | E2 D2 E4 | %43
w: bas- cia- mi,|_ mil- le|vol- t'e mil- l'an-|cho- ra, mil- le|vol- t'e mil- l'an-|cho- ra,|et|poi mi|_ bas- cia|
 E4 z2 ^G2- | G2 A2 ^G4 | ^G2 A4 E2- | E2 G2 A4 | B4 B3 A | G4 A4- | A4 z4 | z2 d3 c B2 | %51
w: si, mi|_ bas- cia|si che chi|_ n'as- col-|ta, nu- me-|rar mai,|_|nu- me- rar,|
 z2 c3 B A2- | A2 B3 A G2- | G2 A4 A2 | A2 A2 A2 A2 | ^G4 A4 | A2 c4 E2- |: E2 G2 z2 c2 | %58
w: nu- me- rar,|_ nu- me- rar|_ mai non|pos- si no- stri|bas- ci|che fai, che|_ fai dol-|
 G2 A2 E2 c2 | G2 A2 E4 | F2 FG A2 D2 | d2 dc B2 A2 | ^G2 GG G4 | A2 c2 c2 B2 | A4 ^G2 B2 | %65
w: ce mio ben, dol-|ce mio ben,|che no mi bas- ci,|che no mi bas- ci,|che no mi bas-|ci, che no mi|bas- ci, che|
 c2 B2 A4 | ^G8 |1 A2 c4 E2- :|2 ^G4 z2 A2 || G2 G2 F4- | F4 E4 |] %71
w: no mi bas-|ci,|cha fai, che|ci, che|no mi bas-|* ci.|
V:2
 B6 c2 | c2 B4 ^c2 | ^c4 e4- | e4 f4 | e8 | z4 z2 g2 | g2 e2 f2 c2 | z2 A2 G2 G2 | A2 c2 B4 | %9
w: Bas- cia|mi, bas- cia|mi, vi-|* ta|mia,|bas-|cia m'an- cho- ra,|bas- cia m'an-|chor', an- cho-|
 ^c4 z2 e2- | e2 ^f2 g4 | a2 a4 a2- | a2 ^f2 g2 g2 | f2 e2 g4 | g2 e2 f2 f2 | e4 e4- | e4 d4 | %17
w: ra, ne|_ ti spiac-|cia bas- ciar,|_ bas- ciar m'un|al- tra vol-|ta, ch'el fi- nir|di bas-|* ciar,|
 c4 B2 B2 | A4 e4 | z2 d2 c2 c2 | B4 A4 | z2 e4 d2 | e8 | z2 e4 g2- | g2 g2 f4 | e4 e4- | %26
w: co- si m'ac-|co- ra,|co- si m'ac-|co- ra,|m'ac- co-|ra,|che zen-|* za bas-|ci m'e|
 e2 e4 e2 | e4 d4- | d4 c2 A2- | AB c4 B2- | BB e2 d3 e | f4 e3 f | g2 g2 g2 d2 | f4 e2 e2- | %34
w: _ l'a- ni-|ma vol-|* ta, bas-|* cia mi,- bas-|* cia mi, bas- cia|mi mil- le|vol- te, mil- l'an-|cho- ra, bas-|
 ef g2 e2 e2 | d3 e f2 f2 | ed ef g4 | g4 f3 f | e2 d2 c2 c2 | B4 c4 | z4 c4 | c4 z2 B2- | %42
w: * cia mi, mil- le|vol- t'e mil- l'an-|cho- * * * *|ra, mil- le|vol- t'e mil- l'an-|cho- ra,|et|poi mi|
 B2 A2 B4 | B4 z2 e2- | e2 d2 e4 | e2 e4 c2- | c2 d2 c2 A2 | d3 c B2 g2- | gf e2 c4 | z4 g3 f | %50
w: _ bas- cia|si, mi|_ bas- cia-|si che chi|_ m'as- col- ta,|nu- me rar, nu-|* me rar mai,|nu- me-|
 e2 f2 z4 | e3 d c2 f2- | fe d4 e2- | ed c4 f2 | f4 e2 f2 | e8 | z2 A2 c4 |: c2 e4 e2 | e4 g2 e2 | %59
w: rar mai,|nu- me- rar, nu-|* me- rar mai|_ non pos- si|no- stri ba-|ci,|che fai,|dol- ce mio|ben, dol- ce|
 e4 g4 | d2 de f4- | f4 f4 | e2 ee e4 | ^c2 e2 e2 e2- | e2 d2 e2 e2 | e2 e4 d2 | e8 |1 z2 A2 c4 :|2 %68
w: mio ben,|che no mi bas-|* ci,|che no mi bas-|ci, che no- mi|_ bas- ci, che|no mi bas-|ci,|che fai,|
 e4 z2 e2 || e2 e2 d4- | d4 B4 |] %71
w: ci, che|no mi bas-|* ci.|
V:3
 ^G6 A2 | A2 ^G4 A2 | A4 ^c4- | c4 d4 | B4 z4 | z2 d2 d2 B2 | c4 A4 | d2 d2 B4 | c2 A4 ^G2 | %9
w: Bas- cia|mi, bas- cia|mi, vi-|* ta|mia,|bas- cia m'an-|cho- ra,|bas- cia- m'an-|chor', an- cho-|
 A4 z2 ^c2- | c2 d2 d4 | f2 f4 e2- | e2 d2 d2 e2 | c2 c2 d4 | e2 c2 c2 d2 | B4 c4- | c4 B4 | %17
w: ra, ne|_ ti spiac-|cia bas- ciar,|_ bas- ciar m'un|al- tra vol-|ta, ch'el fi- nir|di bas-|* ciar,|
 z2 e4 d2 | d2 c4 B2 | z4 z2 c2 | B2 B2 A4 | G2 B2 c2 A2 | c4 B4 | z2 ^c4 d2 | G2 c3 B/A/ B2 | %25
w: co- si|m'ac- co- ra,|co-|si m'ac- co-|ra, co- si m'ac-|co- ra,|che sen-|za bas- * * *|
 c4 c4- | c2 B4 A2 | A4 A4- | A4 A4 | z4 E3 F | G4 B3 c | d4 c3 d | e2 e2 d2 B2 | d2 A2 AB c2- | %34
w: ci m'e|_ l'a- ni-|ma vol-|* ta,|bas- cia|mi bas- cia|mi mil- le|vol- t'e mil- l'an-|cho- ra, bas- cia mi,|
 c2 G3 A B2- | B2 d4 d2 | c2 A2 e2 e2 | d4 d2 cc | c2 A2 A2 G2 | G4 G4 | z4 A4 | A4 z2 ^G2- | %42
w: _ bas- cia mi|_ mil- me|vol- t'e mil- l'an-|cho- ra, mil- le|vol- t'e mil- l'an-|cho- ra,|et|poi mi-|
 G2 A2 ^G4 | ^G4 z2 B2- | B2 A2 B4 | B2 c4 G2- | G2 G4 F2 | G2 d3 c B2 | z2 c3 B A2 | d3 c B2 B2 | %50
w: _ bas- cia|si, mi|_ bas- cia|si che chi|_ m'as- col-|ta, nu- me- rar,|nu- me rar|mai no pos- s'i|
 c2 A4 G2 | A4 z4 | d3 c B4 | c3 B A4 | d4 ^c2 d2 | B4 A2 A2 | c4 z4 |: z2 c2 G2 A2 | E2 c2 G2 A2 | %59
w: no- stri bas-|ci,|nu- me- rar|mai no pos-|s'i no- stri|bas- ci, che|fai,|dol- ce mio|ben, dol- ce mio|
 E2 c2 c2 c2 | A2 F2 FG A2- | A2 D2 d2 dc | B8 | A2 A2 A2 ^G2 | A4 B2 B2 | A2 ^G2 A4 | B4 z2 B2 |1 %67
w: ben, dol- ce mio|ben, che no mi bas-|* ci, che no mi|bas-|ci, che no mi|bas- ci, che|no mi bas-|ci, che|
 c4 z4 :|2 B4 z2 c2 || c2 c2 A4- | A4 ^G4 |] %71
w: fai,|ci, che|fai mi bas-|* ci.|
V:4
 E,6 A,,2 | A,,2 E,4 A,,2 | A,,4 A,4- | A,4 D,4 | E,4 z2 A,2 | A,2 ^F,2 G,4 | E,2 C,2 F,2 F,2 | %7
w: Bas- cia|mi, bas- cia|mi, vi-|* ta|mia, bas-|cia m'an- cho-|ra,- bas- cia m'an-|
 D,4 E,4 | A,,2 A,,2 E,4 | A,,4 z2 A,2- | A,2 D,2 G,4 | F,2 D,4 A,2- | A,2 D,2 G,2 C,2 | %13
w: chor, an-|chor, an- cho-|ra, ne|_ ti spiac-|cia bas- ciar|_ bas- ciar m'un|
 F,2 A,2 G,4 | C,2 C,2 F,2 D,2 | E,4 C,4 | G,8 | A,4 G,2 G,2 | F,4 E,2 E,2 | F,2 D,2 A,4 | %20
w: al- tra vol-|ta, ch'el fi- nir|di bas-|ciar|co- si m'ac-|co- ra, co-|si m'ac- co-|
 E,4 z2 A,2 | G,2 G,2 F,4 | E,8 | z2 A,4 G,2- | G,2 E,2 D,4 | C,4 A,,4- | A,,2 E,4 ^C,2 | %27
w: ra, co-|si m'ac- co-|ra,|che sen-|* za bas-|ci m'e|_ l'a- ni-|
 ^C,4 D,4- | D,4 A,,4- | A,,4 z4 | E,3 F, G,4 | F,3 G, A,2 A,2 | G,2 E,2 G,4 | D,4 A,,3 B,, | %34
w: ma vol-|* ta,|_|bas- cia mi,|mil- l'e vol- t'e|mil- l'an- cho-|ra, bas- cia|
 C,4 E,3 F, | G,2 G,2 F,2 D,2 | A,4 E,4 | G,3 G, D,2 F,2 | C,2 D,2 A,,2 C,2 | G,,4 C,4 | z4 A,,4 | %41
w: mi mil- me|vol- t'e mil- l'an-|cho- ra,|mil- le vol- t'e|mil- l'e mil- l'an-|cho- ra,|et|
 A,,4 z2 E,2- | E,2 F,2 E,4 | E,4 z2 E,2- | E,2 F,2 E,4 | E,2 A,,4 C,2- | C,2 B,,2 A,,4 | %47
w: poi mi|_ bas- cia|si mi|_ bas- cia|si che chi|_ m'as- col-|
 G,,4 G,3 F, | E,4 F,3 E, | D,4 E,4 | C,2 D,2 B,,4 | A,,2 A,3 G, F,2- | F,2 G,3 F, E,2- | %53
w: ta, nu- me-|rar, mai- no|pos- s'i|no- stri bas-|ci, nu- me- rar,|_ nu- me rar|
 E,2 F,3 E, D,2- | D,2 D,2 A,2 D,2 | E,4 A,,4- | A,,4 A,,4 |: C,8- | C,8 | C,8 | D,8 | D,8 | E,8 | %63
w: _ mai no pos-|* s'i no- stri|bas- ci,,|_ che|fai|_|dol-|ce|mio|ben|
 A,,4 A,,2 E,2 | F,4 E,2 E,2 | A,,2 E,2 F,4 | E,8 |1 A,,8 :|2 E,4 z2 A,,2 || C,2 C,2 D,4- | %70
w: che no mi|bas- ci, che|no mi bas-|ci,|che|ci, che|fai mi bas-|
 D,4 E,4 |] %71
w: * ci.|

